X: 319
T:Madocsai Tancok
O:Hungary
F: http://www.youtube.com/watch?v=yke-dPuSQdw
F: http://www.youtube.com/watch?v=rSfk6j2FBE8
P:AB
L:1/8
M:2/4
Q:1/4=96
K:Em clef=treble
P:A
   z2 B,/C/B,/C/     |"G".D2 .G2      |"Em".E2 "G".G2| "G"DEDC           | B,4|\
   GF "Em"E2         | "G"DC B,2      | DEDC         | B,2 B,/C/B,/C/    |
|: .D2 .G2           |"Em".E2 "G".G2  | DEDC         | B,4               |\
   "C".C2 "Em".E2    | "G".D2 GA      |BGGF          | G4                |
   "G"B2 "Dm"A/B/A/B/| GB B2          |"Dm".A2 "G".G2| "Bm"F4            |\
   "C"ce "Em"e2      | "G"Bd d2       | "Am"Ac "C"c2 | "G"B2 B,/C/B,/C/  :| 
   "G".D2 .G2        |"Em".E2 "G".G2  | DEDC         | B,4               |\
   "C".C2 "Em".E2    | .D2 GA         |BGGF          | G4                |z4  |
P:B
Q:1/4=192
K:Gm
%%MIDI gchord fzzzzzzz
|: "Gm"G2 "Dm"z2     |z.F"Gm".G.A     | .B2 "Dm".A2  | "Gm".G2 "D".^F2   |\
   "Gm".G2 "Cm"C2    | "Gm"D2 "Eb"E2  | "Gm"DD2D     | D4                :|
|: "Gm"D3 C          |"Eb"DE3         |"Bb"F3E       |"Gm"DB,3           |\
   B,3 A,            |B,2 "Cm"C2      | "Gm"D3 B,    | A,G,3             |
   "Bb"F,2"Gm"B,2    | "Dm"A,2 "Bb"F,2| "Gm"G,G,2F,  | G,4               :|



